!!!OTL: DU JUNGES GRUEN DU FRISCHES GRAS
!!!ARE: Europa, Mitteleuropa, Deutschland
!!!SCT: B0201
!!!YEM: Copyright 1995, estate of Helmut Schaffrath.
**kern
*ICvox
*Ivox
*M3/4
*k[]
*C:
{8g
=1
8.e
16f
4.g
8a
=2
8.g
16e
4cc
8r}
{8g
=3
8.a
16g
4.dd
8dd
=4
8.cc
16dd
4ee
8r}
{8ee
=5
8.ee
16b
4b
4ee
=6
8.dd
16cc
4cc
8r}
{8a
=7
8.g
16g
4cc
4e
=8
2f
8.d
16c
=9
4c
4.r}
==
!!!AGN: Jahreszeiten - Lied, Fruehling
!!!ONB: ESAC (Essen Associative Code) Database: BOEHME
!!!AMT: simple triple
!!!AIN: vox
!!!EED: Helmut Schaffrath
!!!EEV: 1.0
*-
